_includes/icons/color-gmail.svg

<svg fill="#666" height="50" viewBox="0 0 48 48" width="50" xmlns="http://www.w3.org/2000/svg"><path d="m5.5 40.5h37c1.933594 0 3.5-1.566406 3.5-3.5v-26c0-1.933594-1.566406-3.5-3.5-3.5h-37c-1.933594 0-3.5 1.566406-3.5 3.5v26c0 1.933594 1.566406 3.5 3.5 3.5z" fill="#e0e0e0"/><path d="m26 40.5h16.5c1.933594 0 3.5-1.566406 3.5-3.5v-26c0-1.933594-1.566406-3.5-3.5-3.5h-37c-1.933594 0-3.5 1.566406-3.5 3.5z" fill="#d9d9d9"/><path d="m6.746094 40.5h35.753906c1.933594 0 3.5-1.566406 3.5-3.5v-25.5z" fill="#eee"/><path d="m25.746094 40.5h16.753906c1.933594 0 3.5-1.566406 3.5-3.5v-25.5l-27.230469 20.117188z" fill="#e0e0e0"/><path d="m42.5 9.5h-37c-1.933594 0-3.5-.433594-3.5 1.5v26c0 1.933594 1.566406 3.5 3.5 3.5h1.5v-28.5h34v28.5h1.5c1.933594 0 3.5-1.566406 3.5-3.5v-26c0-1.933594-1.566406-1.5-3.5-1.5z" fill="#ca3737"/><path d="m42.5 7.5h-37c-1.933594 0-3.5 1.535156-3.5 3.5 0 1.207031 1.519531 2.257813 1.519531 2.257813l20.480469 14.5 20.480469-14.5s1.519531-1.050782 1.519531-2.257813c0-1.964844-1.566406-3.5-3.5-3.5z" fill="#f5f5f5"/><path d="m43.246094 7.582031-19.246094 13.417969-19.246094-13.417969c-1.574218.335938-2.753906 1.714844-2.753906 3.417969 0 1.207031 1.519531 2.257813 1.519531 2.257813l20.480469 14.5 20.480469-14.5s1.519531-1.050782 1.519531-2.257813c0-1.703125-1.179687-3.082031-2.753906-3.417969z" fill="#e84f4b"/></svg>

<svg xmlns="http://www.w3.org/2000/svg" viewBox="0 0 48 48" width="50" height="50" fill="#666"><path d="M 5.5 40.5 L 42.5 40.5 C 44.433594 40.5 46 38.933594 46 37 L 46 11 C 46 9.066406 44.433594 7.5 42.5 7.5 L 5.5 7.5 C 3.566406 7.5 2 9.066406 2 11 L 2 37 C 2 38.933594 3.566406 40.5 5.5 40.5 Z" fill="#e0e0e0"/><path d="M 26 40.5 L 42.5 40.5 C 44.433594 40.5 46 38.933594 46 37 L 46 11 C 46 9.066406 44.433594 7.5 42.5 7.5 L 5.5 7.5 C 3.566406 7.5 2 9.066406 2 11 Z" fill="#d9d9d9"/><path d="M 6.746094 40.5 L 42.5 40.5 C 44.433594 40.5 46 38.933594 46 37 L 46 11.5 Z" fill="#eee"/><path d="M 25.746094 40.5 L 42.5 40.5 C 44.433594 40.5 46 38.933594 46 37 L 46 11.5 L 18.769531 31.617188 Z" fill="#e0e0e0"/><path d="M 42.5 9.5 L 5.5 9.5 C 3.566406 9.5 2 9.066406 2 11 L 2 37 C 2 38.933594 3.566406 40.5 5.5 40.5 L 7 40.5 L 7 12 L 41 12 L 41 40.5 L 42.5 40.5 C 44.433594 40.5 46 38.933594 46 37 L 46 11 C 46 9.066406 44.433594 9.5 42.5 9.5 Z" fill="#ca3737"/><path d="M 42.5 7.5 L 5.5 7.5 C 3.566406 7.5 2 9.035156 2 11 C 2 12.207031 3.519531 13.257813 3.519531 13.257813 L 24 27.757813 L 44.480469 13.257813 C 44.480469 13.257813 46 12.207031 46 11 C 46 9.035156 44.433594 7.5 42.5 7.5 Z" fill="#f5f5f5"/><path d="M 43.246094 7.582031 L 24 21 L 4.753906 7.582031 C 3.179688 7.917969 2 9.296875 2 11 C 2 12.207031 3.519531 13.257813 3.519531 13.257813 L 24 27.757813 L 44.480469 13.257813 C 44.480469 13.257813 46 12.207031 46 11 C 46 9.296875 44.820313 7.917969 43.246094 7.582031 Z" fill="#e84f4b"/></svg>
